src/button.svg

<svg width="71" height="71" viewBox="0 0 71 71" fill="none" xmlns="http://www.w3.org/2000/svg">
<circle cx="35.8241" cy="35.4764" r="35.1756" fill="#337FED"/>
<path d="M18.9532 45.1169L16.543 54.7577L26.1837 52.3475L54.1081 24.4231C55.0117 23.5192 55.5194 22.2933 55.5194 21.0151C55.5194 19.7369 55.0117 18.5111 54.1081 17.6071L53.6935 17.1926C52.7896 16.2889 51.5637 15.7812 50.2855 15.7812C49.0073 15.7813 47.7815 16.2889 46.8775 17.1926L18.9532 45.1169ZM43.055 21.0151L50.2855 28.2457ZM38.2346 54.7577H57.5161Z" fill="#337FED"/>
<path d="M43.055 21.0151L50.2855 28.2457M38.2346 54.7577H57.5161M18.9532 45.1169L16.543 54.7577L26.1837 52.3475L54.1081 24.4231C55.0117 23.5192 55.5194 22.2933 55.5194 21.0151C55.5194 19.7369 55.0117 18.5111 54.1081 17.6071L53.6935 17.1926C52.7896 16.2889 51.5637 15.7812 50.2855 15.7812C49.0073 15.7813 47.7815 16.2889 46.8775 17.1926L18.9532 45.1169Z" stroke="white" stroke-linecap="round" stroke-linejoin="round"/>
</svg>

<svg xmlns="http://www.w3.org/2000/svg" width="71" height="71" fill="none"><circle cx="35.824" cy="35.476" r="35.176" fill="#337FED"/><path fill="#337FED" d="m18.953 45.117-2.41 9.64 9.64-2.41 27.925-27.924a4.82 4.82 0 0 0 0-6.816l-.414-.414a4.82 4.82 0 0 0-6.817 0zm24.102-24.102 7.23 7.23Zm-4.82 33.743h19.281Z"/><path stroke="#fff" stroke-linecap="round" stroke-linejoin="round" d="m43.055 21.015 7.23 7.23m-12.05 26.513h19.281m-38.563-9.641-2.41 9.64 9.64-2.41 27.925-27.924a4.82 4.82 0 0 0 0-6.816l-.414-.414a4.82 4.82 0 0 0-6.817 0z"/></svg>
